X:1
T: Banjo
C:
R:Reel
Q:232
K:G
M:4/4
L:1/8
|:G2|G,2z2 zFG2|G,2z2 z2AB|cA BG AF GB|BG AF GAG2|
G,2z2 zFG2|G,2z2 z2AB|cA BG AF GB|BG AF G2:|
|:AB|cA BG AF GA|BG AF GF ED|cA BG AF GA|BG AF G2AB|
cA BG AF GA|BG AF GF ED|cA BG AF GA|BG AF G2:|
